X: 12239
T: Fair-haired Lass, The
R: reel
M: 4/4
K: Amixolydian
cd|ea ~a2 eg ~g2|ea ~a2 ABcd|ea ~a2 eg ~g2|affe d:|
ed|c2 Ac BAGB|BA ~A2 BAGB|ABcd edcd|eage d2:|

